static/img/kroki/6fc4505c8601ca6237a83bcba292888b.svg

<?xml version="1.0" encoding="us-ascii" standalone="no"?><svg xmlns="http://www.w3.org/2000/svg" xmlns:xlink="http://www.w3.org/1999/xlink" contentStyleType="text/css" height="252px" preserveAspectRatio="none" style="width:454px;height:252px;" version="1.1" viewBox="0 0 454 252" width="454px" zoomAndPan="magnify"><defs/><g><!--class azure_network_application_gateway--><g id="elem_azure_network_application_gateway"><rect codeLine="23" fill="#3D176E" height="39.7891" id="azure_network_application_gateway" rx="2.5" ry="2.5" style="stroke:#000D19;stroke-width:0.5;" width="348" x="53" y="106.79"/><ellipse cx="68" cy="126.6845" fill="#ADD1B2" rx="11" ry="11" style="stroke:#181818;stroke-width:1.0;"/><path d="M70.9688,132.3252 Q70.3906,132.622 69.75,132.7627 Q69.1094,132.9189 68.4063,132.9189 Q65.9063,132.9189 64.5781,131.2783 Q63.2656,129.622 63.2656,126.497 Q63.2656,123.372 64.5781,121.7158 Q65.9063,120.0595 68.4063,120.0595 Q69.1094,120.0595 69.75,120.2158 Q70.4063,120.372 70.9688,120.6689 L70.9688,123.3877 Q70.3438,122.8095 69.75,122.5439 Q69.1563,122.2627 68.5313,122.2627 Q67.1875,122.2627 66.5,123.3408 Q65.8125,124.4033 65.8125,126.497 Q65.8125,128.5908 66.5,129.6689 Q67.1875,130.7314 68.5313,130.7314 Q69.1563,130.7314 69.75,130.4658 Q70.3438,130.1845 70.9688,129.6064 L70.9688,132.3252 Z " fill="#000000"/><text fill="#D9B8FF" font-family="Helvetica" font-size="17" lengthAdjust="spacing" textLength="306" x="87" y="132.5698">azure_network_application_gateway</text></g><!--class azure_network_subnet--><g id="elem_azure_network_subnet"><rect codeLine="26" fill="#3D176E" height="39.7891" id="azure_network_subnet" rx="2.5" ry="2.5" style="stroke:#000D19;stroke-width:0.5;" width="233" x="110.5" y="7"/><ellipse cx="125.5" cy="26.8945" fill="#ADD1B2" rx="11" ry="11" style="stroke:#181818;stroke-width:1.0;"/><path d="M128.4688,32.5352 Q127.8906,32.832 127.25,32.9727 Q126.6094,33.1289 125.9063,33.1289 Q123.4063,33.1289 122.0781,31.4883 Q120.7656,29.832 120.7656,26.707 Q120.7656,23.582 122.0781,21.9258 Q123.4063,20.2695 125.9063,20.2695 Q126.6094,20.2695 127.25,20.4258 Q127.9063,20.582 128.4688,20.8789 L128.4688,23.5977 Q127.8438,23.0195 127.25,22.7539 Q126.6563,22.4727 126.0313,22.4727 Q124.6875,22.4727 124,23.5508 Q123.3125,24.6133 123.3125,26.707 Q123.3125,28.8008 124,29.8789 Q124.6875,30.9414 126.0313,30.9414 Q126.6563,30.9414 127.25,30.6758 Q127.8438,30.3945 128.4688,29.8164 L128.4688,32.5352 Z " fill="#000000"/><text fill="#D9B8FF" font-family="Helvetica" font-size="17" lengthAdjust="spacing" textLength="191" x="144.5" y="32.7798">azure_network_subnet</text></g><!--class azure_network_web_application_firewall_policy--><g id="elem_azure_network_web_application_firewall_policy"><rect codeLine="29" fill="#3D176E" height="39.7891" id="azure_network_web_application_firewall_policy" rx="2.5" ry="2.5" style="stroke:#000D19;stroke-width:0.5;" width="440" x="7" y="206.58"/><ellipse cx="22" cy="226.4745" fill="#ADD1B2" rx="11" ry="11" style="stroke:#181818;stroke-width:1.0;"/><path d="M24.9688,232.1152 Q24.3906,232.412 23.75,232.5527 Q23.1094,232.7089 22.4063,232.7089 Q19.9063,232.7089 18.5781,231.0683 Q17.2656,229.412 17.2656,226.287 Q17.2656,223.162 18.5781,221.5058 Q19.9063,219.8495 22.4063,219.8495 Q23.1094,219.8495 23.75,220.0058 Q24.4063,220.162 24.9688,220.4589 L24.9688,223.1777 Q24.3438,222.5995 23.75,222.3339 Q23.1563,222.0527 22.5313,222.0527 Q21.1875,222.0527 20.5,223.1308 Q19.8125,224.1933 19.8125,226.287 Q19.8125,228.3808 20.5,229.4589 Q21.1875,230.5214 22.5313,230.5214 Q23.1563,230.5214 23.75,230.2558 Q24.3438,229.9745 24.9688,229.3964 L24.9688,232.1152 Z " fill="#000000"/><text fill="#D9B8FF" font-family="Helvetica" font-size="17" lengthAdjust="spacing" textLength="398" x="41" y="232.3598">azure_network_web_application_firewall_policy</text></g><!--link azure_network_application_gateway to azure_network_web_application_firewall_policy--><g id="link_azure_network_application_gateway_azure_network_web_application_firewall_policy"><path codeLine="32" d="M227,147.01 C227,164.15 227,183.06 227,200.2 " fill="none" id="azure_network_application_gateway-to-azure_network_web_application_firewall_policy" style="stroke:#1A83AF;stroke-width:2.0;"/><polygon fill="#1A83AF" points="227,206.2,231,197.2,227,201.2,223,197.2,227,206.2" style="stroke:#1A83AF;stroke-width:2.0;"/></g><!--link azure_network_subnet to azure_network_application_gateway--><g id="link_azure_network_subnet_azure_network_application_gateway"><path codeLine="33" d="M227,47.22 C227,64.36 227,83.27 227,100.41 " fill="none" id="azure_network_subnet-to-azure_network_application_gateway" style="stroke:#1A83AF;stroke-width:2.0;"/><polygon fill="#1A83AF" points="227,106.41,231,97.41,227,101.41,223,97.41,227,106.41" style="stroke:#1A83AF;stroke-width:2.0;"/></g><!--SRC=[bP11Qy9048Nl-HKBdWLJQTLB8HMalKYflPKI9jbPNRBP3REJ1YtzxutLbfX4fRTXtiTxRsQZ9GhC2zwA7FC4oGS-qxO0Wbn4HAwQE-D839G2DPwqnOMpV1LOGexY4Sq7iawXJRnkT9fPz5xSDAG7IBCrkTBAWpqJM5zBQBb1pGru7p6JJah6HXavIwPAjScswM0imyaTTZ174kc8Z4OZ6SxQoDMeYtV_4IkzGn4sdxPqZ9sQdOWVwcBBFT4esJdqLp_RyHcar7OjRXkxbqCdiaWd-zK6fAlsj0BZcp6UaT3nji1vvogSJQMQzC9Fv-0WtRzEmAuaZ2rovIYBeIXCNPwri_4Q62lOYiyW-Eg5VPdKutczmkJ4K6cg3Os92rVlZiRNyuTlWp2QZgF5-_3-Vmb1RzyBVZtnmJS0]--></g></svg>

<svg xmlns="http://www.w3.org/2000/svg" width="454" height="252" viewBox="0 0 454 252"><rect width="348" height="39.789" x="53" y="106.79" fill="#3D176E" rx="2.5" ry="2.5" style="stroke:#000d19;stroke-width:.5"/><circle cx="68" cy="126.684" r="11" fill="#ADD1B2" style="stroke:#181818;stroke-width:1"/><path d="M70.969 132.325q-.578.297-1.219.438-.64.156-1.344.156-2.5 0-3.828-1.64-1.312-1.657-1.312-4.782t1.312-4.781q1.328-1.656 3.828-1.656.703 0 1.344.156.656.156 1.219.453v2.719q-.625-.579-1.219-.844-.594-.281-1.219-.281-1.344 0-2.031 1.078-.687 1.062-.687 3.156t.687 3.172q.688 1.062 2.031 1.062.625 0 1.219-.265.594-.281 1.219-.86z"/><text x="87" y="132.57" fill="#D9B8FF" font-family="Helvetica" font-size="17" textLength="306">azure_network_application_gateway</text><rect width="233" height="39.789" x="110.5" y="7" fill="#3D176E" rx="2.5" ry="2.5" style="stroke:#000d19;stroke-width:.5"/><circle cx="125.5" cy="26.895" r="11" fill="#ADD1B2" style="stroke:#181818;stroke-width:1"/><path d="M128.469 32.535q-.578.297-1.219.438-.64.156-1.344.156-2.5 0-3.828-1.64-1.312-1.657-1.312-4.782t1.312-4.781q1.328-1.656 3.828-1.656.703 0 1.344.156.656.156 1.219.453v2.719q-.625-.578-1.219-.844-.594-.281-1.219-.281-1.344 0-2.031 1.078-.687 1.062-.687 3.156t.687 3.172q.688 1.062 2.031 1.062.625 0 1.219-.265.594-.281 1.219-.86z"/><text x="144.5" y="32.78" fill="#D9B8FF" font-family="Helvetica" font-size="17" textLength="191">azure_network_subnet</text><rect width="440" height="39.789" x="7" y="206.58" fill="#3D176E" rx="2.5" ry="2.5" style="stroke:#000d19;stroke-width:.5"/><circle cx="22" cy="226.475" r="11" fill="#ADD1B2" style="stroke:#181818;stroke-width:1"/><path d="M24.969 232.115q-.578.297-1.219.438-.64.156-1.344.156-2.5 0-3.828-1.64-1.312-1.657-1.312-4.782t1.312-4.781q1.328-1.656 3.828-1.656.703 0 1.344.156.656.156 1.219.453v2.719q-.625-.578-1.219-.844-.594-.281-1.219-.281-1.343 0-2.031 1.078-.687 1.062-.687 3.156t.687 3.172q.688 1.062 2.031 1.062.625 0 1.219-.265.594-.281 1.219-.86z"/><text x="41" y="232.36" fill="#D9B8FF" font-family="Helvetica" font-size="17" textLength="398">azure_network_web_application_firewall_policy</text><path fill="none" d="M227 147.01v53.19" style="stroke:#1a83af;stroke-width:2"/><path fill="#1A83AF" d="m227 206.2 4-9-4 4-4-4z" style="stroke:#1a83af;stroke-width:2"/><path fill="none" d="M227 47.22v53.19" style="stroke:#1a83af;stroke-width:2"/><path fill="#1A83AF" d="m227 106.41 4-9-4 4-4-4z" style="stroke:#1a83af;stroke-width:2"/></svg>
